X:1
T:Title
%%score { ( 1 4 ) | ( 2 3 ) }
L:1/8
M:3/4
K:F
V:1 treble nm="Grand Piano"
V:4 treble 
V:2 bass 
V:3 bass 
V:1
 z2 z[Q:1/4=100] C F>G | [CA]3 B AG | [A,F]4 F2 | [DF]3 F [CE]D | [A,C]3 C F>G | [CA]3 B [CA]G | %6
 [A,F]4 A2 | [=B,G]3 F [G,E]D | G3 C F>G | a2 z2 z2 | [DB]4 [B,D]2 | [A,C]3 A A<G | %12
[M:3/8] [A,F]3 |] %13
V:2
 z2 z A, A,>B, | F,,A,,/C,/ F,D CB, | F,,A,,/C,/ .F,2 _E2 | B,,D,/F,/ B,D z B, | %4
 F,,A,,/C,/ F,A, A,>B, | F,,A,,/C,/ F,D z B, | F,,A,,/C,/ .F,2 C2 | A,,=B,,/D,/ G,A, z F, | %8
 [C,,E,B,]3 B, A,>B, | F,,A,,/C,/ F,C D_E | B,,D,/F,/ .B,2 B,,2 | z2 z C C<B, |[M:3/8] F,,3 |] %13
V:3
 x6 | x6 | x6 | z2 z2 [B,,F,]2 | x6 | z2 z2 C,2 | x6 | z2 z2 G,,2 | x6 | x6 | x6 | C,6 | %12
[M:3/8] x3 |] %13
V:4
 x6 | x6 | x6 | x6 | x6 | x6 | x6 | x6 | x6 | [CA]3 A Bc | x6 | x6 |[M:3/8] x3 |] %13

